X:1
T:Sonata I - RV27 - Giga
T:Sonata I - RV27 Sarabanda 
T:Antonio Vivaldi
C:Antonio Vivaldi
%%score 1 2
L:1/8
Q:1/4=50
M:3/4
K:F
V:1 treble nm="Violin" snm="Vln."
V:2 bass nm="Violoncello" snm="Vc."
V:1
"_Largo" x d | G2 g3 a | ^f2 g3 a | d2 d'3 c' | ba g2 z g | a2 d3 _e | ^c3 c d2- | de Pe3 d | d4 :: %9
 z c | =B_a g3 f | _ed c2 z d | ^cb a3 g | ^fe d2 z2 | d2 d3 d | g^f g2 z2 | c2 c3 c | ^f3 d g2- | %18
 ga P^f3 g | g6 | _e2 e3 e | a2 d2 z2 | d2 d3 d | g2 c2 z2 | c2 d3 _e | ^F3 D G2- | GA PA3 G | %27
 G4 :| %28
V:2
 z2 | G,A, B,G, B,C | D_E DC B,A, | B,G, ^F,E, F,D, | G,A, B,G, F,E, | F,E, F,D, F,G, | %6
 A,B, A,G, F,E, | F,G, A,G, A,A,, | D,4 :: F,_E, | D,C, =B,,A,, B,,G,, | C,D, _E,F, G,F, | %12
 E,D, ^C,=B,, C,A,, | D,2 D_E DC | B,C B,A, G,F, | _E,2 CD CB, | A,B, A,G, ^F,E, | %17
 D,_E, D,C, B,,A,, | B,,C, D,C, D,D,, | B,,2 B,C DB, | G,G,, G,^F, G,A, | ^F,^F,, F,G, A,G, | %22
 F,F,, F,E, F,G, | E,E,, E,F, G,F, | _E,C, B,,A,, B,,G,, | D,_E, D,C, B,,A,, | B,,C, D,C, D,D,, | %27
 G,,4 :| %28

